!!!SOCIAL_FUNCTION:	songs of personal narratives concerning war
!!!PDT:	1918

Specific Region: Dakotas, Minnesota, Montana, Nebraska
!!!REG: Dakotas and Montana
!!!LING_GROUP: Siouan
!!!LANG: Tone
!!!OTL@ENG: I Come After Your Horses
!!!ONM: No. 174
**kern
*Imale
*clefF4
*k[b-e-]
*M2/4
*MM58
4d
4d
=2
16d
16c
16d
16d
4B-
=3
4B-
4B-
=4
16d
16c
16d
16d
8.B-
16d
=5
8B-
8G
16F
8.F
=6
4F
4F
=7
16B-
16G
16G
16F
4F
=8
4F
16F
16F
16G
16F
=9||
*M3/4
8D
8D
2D
=10||
*M2/4
16G
8.B-
12B-
12B-
12B-
=11||
*M3/4
(12d
12c)
12d
8.B-
16c
8.B-
16G
=12||
*M2/4
4F
8F
8F
=13
16D
8.F
16F
8F
16B-
=14||
*M3/4
(16.B-
32G)
8G
16F
8.F
4F
=15||
*M2/4
4F
16F
16F
16G
16F
=16
8.D
16D
4D
=17
4D
4D
==
*-
!!!CNT: Native American -- Sioux
!!!MRD: 1911/07//-1914///
!!!OCL: Frances Densmore
!!!YOR1: Teton Sioux Music, Bulletin 61,
!!!YOR2: Bureau of American Ethnology, Smithsonian Institution
!!!PPR: Government Printing Office
!!!PPP: Washington, D.C.
!!!PDT: 1918///
!!!ENC: Craig Stuart Sapp
!!!END: 2002/03/25/
!!!EEV: 2002/03/31/
!!!AGN: War Song/Song of Personal Narrative Concerning War
!!!MPN@@SIO: Shung'ka-lu'zahang
!!!MPN@ENG: Swift Dog
!!!TXO: Teton Sioux
!!!MLC: Standing Rock Reservation, South Dakota, United States of America
!!!ARL: 45.9/-100.7#
!!!catalog: Catalogue No. 587
!!!PPG: 408
!!!EFL: 179/245
!!!VTS: 1174260924
